icons/file/icon_format-jpg_xl_black.svg

<svg xmlns="http://www.w3.org/2000/svg" width="36" height="36" viewBox="0 0 36 36" fill="none"><rect width="36" height="36" fill="none"/>
<path fill-rule="evenodd" clip-rule="evenodd" d="M23.5581 34H6.55811C5.36504 33.9987 4.22121 33.5241 3.37759 32.6805C2.53396 31.8369 2.05943 30.6931 2.05811 29.5V10.294L10.2921 2H23.5581C26.0391 2 28.0581 4.019 28.0581 6.5V12H27.0581V6.5C27.0581 4.57 25.4881 3 23.5581 3H10.7081L3.05811 10.706V29.5C3.05811 31.43 4.62811 33 6.55811 33H23.5581C25.4881 33 27.0581 31.43 27.0581 29.5V28H28.0581V29.5C28.0581 31.981 26.0391 34 23.5581 34Z" fill="#0B1F35"/>
<path d="M12.487 15.12H13.68V21.323C13.68 22.161 13.42 22.817 12.901 23.29C12.386 23.763 11.698 24 10.837 24C9.943 24 9.247 23.777 8.747 23.332C8.25 22.887 8 22.263 8 21.462H9.187C9.187 21.962 9.327 22.354 9.607 22.634C9.891 22.915 10.301 23.055 10.837 23.055C11.327 23.055 11.723 22.905 12.023 22.605C12.328 22.303 12.483 21.882 12.487 21.341V15.121V15.12ZM18.223 20.45V23.88H17.036V15.12H20.355C21.34 15.12 22.11 15.365 22.666 15.854C23.226 16.344 23.506 16.991 23.506 17.798C23.506 18.648 23.233 19.304 22.685 19.765C22.141 20.222 21.36 20.451 20.342 20.451H18.222L18.223 20.45ZM18.223 19.506H20.355C20.989 19.506 21.475 19.362 21.813 19.073C22.151 18.78 22.32 18.359 22.32 17.809C22.32 17.289 22.151 16.871 21.813 16.559C21.476 16.245 21.012 16.083 20.423 16.071H18.223V19.506ZM32.5 22.73C32.195 23.156 31.769 23.475 31.22 23.687C30.677 23.896 30.042 24 29.317 24C28.584 24 27.933 23.834 27.364 23.5C26.7939 23.1613 26.3346 22.6641 26.042 22.069C25.732 21.451 25.574 20.735 25.566 19.921V19.157C25.566 17.837 25.881 16.815 26.511 16.089C27.146 15.363 28.036 15 29.181 15C30.121 15 30.877 15.235 31.449 15.704C32.022 16.169 32.372 16.831 32.5 17.689H31.313C31.091 16.53 30.383 15.95 29.187 15.95C28.392 15.95 27.789 16.223 27.377 16.769C26.969 17.31 26.763 18.096 26.759 19.127V19.843C26.759 20.826 26.989 21.608 27.451 22.189C27.912 22.767 28.536 23.055 29.323 23.055C29.7171 23.0615 30.1103 23.0131 30.491 22.911C30.825 22.815 31.101 22.652 31.32 22.424V20.457H29.237V19.518H32.5V22.731V22.73Z" fill="#0B1F35"/>
</svg>

<svg width="36" height="36" viewBox="0 0 36 36" fill="none" xmlns="http://www.w3.org/2000/svg"><path d="M0 0h36v36H0z"/><path fill-rule="evenodd" clip-rule="evenodd" d="M23.558 34h-17a4.505 4.505 0 01-4.5-4.5V10.294L10.292 2h13.266c2.481 0 4.5 2.019 4.5 4.5V12h-1V6.5c0-1.93-1.57-3.5-3.5-3.5h-12.85l-7.65 7.706V29.5c0 1.93 1.57 3.5 3.5 3.5h17c1.93 0 3.5-1.57 3.5-3.5V28h1v1.5c0 2.481-2.019 4.5-4.5 4.5z" fill="#0B1F35"/><path d="M12.487 15.12h1.193v6.203c0 .838-.26 1.494-.779 1.967-.515.473-1.203.71-2.064.71-.894 0-1.59-.223-2.09-.668C8.25 22.887 8 22.263 8 21.462h1.187c0 .5.14.892.42 1.172.284.281.694.421 1.23.421.49 0 .886-.15 1.186-.45.305-.302.46-.723.464-1.264v-6.22zm5.736 5.33v3.43h-1.187v-8.76h3.319c.985 0 1.755.245 2.311.734.56.49.84 1.137.84 1.944 0 .85-.273 1.506-.821 1.967-.544.457-1.325.686-2.343.686h-2.12zm0-.944h2.132c.634 0 1.12-.144 1.458-.433.338-.293.507-.714.507-1.264 0-.52-.169-.938-.507-1.25-.337-.314-.801-.476-1.39-.488h-2.2v3.435zM32.5 22.73c-.305.426-.731.745-1.28.957-.543.209-1.178.313-1.903.313-.733 0-1.384-.166-1.953-.5a3.42 3.42 0 01-1.322-1.431c-.31-.618-.468-1.334-.476-2.148v-.764c0-1.32.315-2.342.945-3.068.635-.726 1.525-1.089 2.67-1.089.94 0 1.696.235 2.268.704.573.465.923 1.127 1.051 1.985h-1.187c-.222-1.159-.93-1.739-2.126-1.739-.795 0-1.398.273-1.81.819-.408.541-.614 1.327-.618 2.358v.716c0 .983.23 1.765.692 2.346.461.578 1.085.866 1.872.866a4.24 4.24 0 001.168-.144c.334-.096.61-.259.829-.487v-1.967h-2.083v-.939H32.5v3.213z" fill="#0B1F35"/></svg>
